!! 00000] TT[WS
!!!OTL: Jie hun
!!!ARE: Asia, China, Shanxi Wuxiang
!! Ethnic Group: Han
!! WI, 301
!!!SCT: J0364
!!!YEM: Copyright 1995, estate of Helmut Schaffrath.
**kern
*ICvox
*Ivox
*M2/4
*k[f#]
*G:
{8dd
4a
16a
16b
=1
8dd
8f#
4r}
=2
{8dd
4a
16b
16a
=3
4g
4r}
=4
{8dd
4a
16a
16b
=5
8dd
8f#
4r}
=6
{8g
8a
8b
8a
=7
8g
4a
8e
=8
4d
4r}
==
!!!AGN: Xiaodiao. Xinminge, Xuanchuan
!! Neue Text. Politische Liede
!!!ONB: ESAC (Essen Associative Code) Database: CHINA
!!!AMT: simple duple
!!!AIN: vox
!!!EED: Helmut Schaffrath
!!!EEV: 1.0
*-
